X:34
T:GB/7d/34 A Story, A Story
%%VWML:GB-7d-34-0
F:http://www.vwml.org/record/GB/7d/34
C:Transcribed by Simon Furey and Lewis Jones
L:1/4
M:4/4
I:linebreak $
K:Cmix
G | C2 D/E/ F | G B A G | F2 D"^(a)" F/D/ | C3 G |"^(b)" B2 G/A/ B |"^(c)" G2 A G |$ F/E/ D E F | G3 G | B2 A c | G B A G | F/E/ D B c | G2 F D |"^(d)" C2 D E/F/ |$ G B A G | F2"^(e)" D B, | C3 || G | C2 D/E/ F | G B A G | F2 D"^(a) var." D |$ C3 G |"^(b) var." B G A B |"^(c) var." G B A G | F/E/ D E F | G3 G | B2 A c | G B A G |$ F/E/ D B c | G2 F D |"^(d) var." C3/2 D/ E F | G B A G | F2"^(e) var." D/C/ B, | C3 |]

